assets/img/braze_icons/currency-ruble-circle.svg

<svg fill="none" height="24" viewBox="0 0 24 24" width="24" xmlns="http://www.w3.org/2000/svg"><g fill="#801ed7"><path d="m10.5 10.5v-3h3.5c.8284 0 1.5.67157 1.5 1.5s-.6716 1.5-1.5 1.5z"/><path clip-rule="evenodd" d="m12 1c-6.07513 0-11 4.92487-11 11 0 6.0751 4.92487 11 11 11 6.0751 0 11-4.9249 11-11 0-6.07513-4.9249-11-11-11zm-3.5 5.5c0-.55228.44772-1 1-1h4.5c1.933 0 3.5 1.567 3.5 3.5s-1.567 3.5-3.5 3.5h-3.5v1.25h2.5c.5523 0 1 .4477 1 1s-.4477 1-1 1h-2.5v1.75c0 .5523-.4477 1-1 1-.55228 0-1-.4477-1-1v-1.75h-.5c-.55228 0-1-.4477-1-1s.44772-1 1-1h.5v-1.25h-.5c-.55228 0-1-.4477-1-1s.44772-1 1-1h.5z" fill-rule="evenodd"/></g></svg>

<svg width="24" height="24" viewBox="0 0 24 24" fill="none" xmlns="http://www.w3.org/2000/svg">
<path d="M10.5 10.5V7.5H14C14.8284 7.5 15.5 8.17157 15.5 9C15.5 9.82843 14.8284 10.5 14 10.5H10.5Z" fill="#801ED7"/>
<path fill-rule="evenodd" clip-rule="evenodd" d="M12 1C5.92487 1 1 5.92487 1 12C1 18.0751 5.92487 23 12 23C18.0751 23 23 18.0751 23 12C23 5.92487 18.0751 1 12 1ZM8.5 6.5C8.5 5.94772 8.94772 5.5 9.5 5.5H14C15.933 5.5 17.5 7.067 17.5 9C17.5 10.933 15.933 12.5 14 12.5H10.5V13.75H13C13.5523 13.75 14 14.1977 14 14.75C14 15.3023 13.5523 15.75 13 15.75H10.5V17.5C10.5 18.0523 10.0523 18.5 9.5 18.5C8.94772 18.5 8.5 18.0523 8.5 17.5V15.75H8C7.44772 15.75 7 15.3023 7 14.75C7 14.1977 7.44772 13.75 8 13.75H8.5V12.5H8C7.44772 12.5 7 12.0523 7 11.5C7 10.9477 7.44772 10.5 8 10.5H8.5V6.5Z" fill="#801ED7"/>
</svg>
